build/svg/cmd/32/zoomin.svg

<?xml version="1.0" encoding="UTF-8" standalone="no"?>
<svg
   xmlns:dc="http://purl.org/dc/elements/1.1/"
   xmlns:cc="http://creativecommons.org/ns#"
   xmlns:rdf="http://www.w3.org/1999/02/22-rdf-syntax-ns#"
   xmlns:svg="http://www.w3.org/2000/svg"
   xmlns="http://www.w3.org/2000/svg"
   xmlns:sodipodi="http://sodipodi.sourceforge.net/DTD/sodipodi-0.dtd"
   xmlns:inkscape="http://www.inkscape.org/namespaces/inkscape"
   viewBox="0 0 32 32"
   version="1.1"
   id="svg4"
   sodipodi:docname="zoomin.svg"
   inkscape:export-filename="/home/jupiter007/Libreoffice yaru theme fullcolor/build/cmd/32/zoomin.png"
   inkscape:export-xdpi="95"
   inkscape:export-ydpi="95"
   inkscape:version="0.92.5 (2060ec1f9f, 2020-04-08)">
  <metadata
     id="metadata10">
    <rdf:RDF>
      <cc:Work
         rdf:about="">
        <dc:format>image/svg+xml</dc:format>
        <dc:type
           rdf:resource="http://purl.org/dc/dcmitype/StillImage" />
      </cc:Work>
    </rdf:RDF>
  </metadata>
  <defs
     id="defs8" />
  <sodipodi:namedview
     pagecolor="#ffffff"
     bordercolor="#666666"
     borderopacity="1"
     objecttolerance="10"
     gridtolerance="10"
     guidetolerance="10"
     inkscape:pageopacity="0"
     inkscape:pageshadow="2"
     inkscape:window-width="1920"
     inkscape:window-height="1011"
     id="namedview6"
     showgrid="true"
     inkscape:zoom="20.85965"
     inkscape:cx="8.810474"
     inkscape:cy="17.154154"
     inkscape:window-x="1920"
     inkscape:window-y="32"
     inkscape:window-maximized="1"
     inkscape:current-layer="svg4">
    <inkscape:grid
       type="xygrid"
       id="grid829" />
  </sodipodi:namedview>
  <path
     inkscape:connector-curvature="0"
     id="path827"
     d="m 7.3243921,7.3243926 a 11,11 0 0 0 0,15.5563494 11,11 0 0 0 15.1848409,0.335599 l 4.967702,4.967702 0.707107,-0.707107 -4.962177,-4.962177 a 11,11 0 0 0 -0.341124,-15.1903664 11,11 0 0 0 -15.5563489,0 z"
     style="opacity:0.6;fill:#000000;fill-opacity:1;fill-rule:nonzero;stroke:#000000;stroke-width:2;stroke-linecap:butt;stroke-linejoin:round;stroke-miterlimit:4;stroke-dasharray:none;stroke-dashoffset:0;stroke-opacity:1" />
  <path
     style="opacity:1;fill:#c8c4b7;fill-opacity:1;fill-rule:nonzero;stroke:none;stroke-width:1.18786657;stroke-linecap:butt;stroke-linejoin:bevel;stroke-miterlimit:4;stroke-dasharray:none;stroke-dashoffset:0;stroke-opacity:1"
     d="m 7.3243921,7.3243926 a 11,11 0 0 0 0,15.5563494 11,11 0 0 0 15.1848409,0.335599 l 4.967702,4.967702 0.707107,-0.707107 -4.962177,-4.962177 a 11,11 0 0 0 -0.341124,-15.1903664 11,11 0 0 0 -15.5563489,0 z"
     id="circle843"
     inkscape:connector-curvature="0" />
  <circle
     style="opacity:1;fill:#fffffe;fill-opacity:1;fill-rule:nonzero;stroke:none;stroke-width:1.07987869;stroke-linecap:butt;stroke-linejoin:bevel;stroke-miterlimit:4;stroke-dasharray:none;stroke-dashoffset:0;stroke-opacity:1"
     id="path826"
     cx="-1.6502875e-06"
     cy="21.358252"
     r="10"
     transform="rotate(-45)" />
  <path
     style="opacity:1;fill:#46a926;fill-opacity:1;stroke:none;stroke-width:2;stroke-linejoin:round;stroke-miterlimit:4;stroke-dasharray:none;stroke-opacity:1"
     d="M 14 10 L 14 14 L 10 14 L 10 16 L 14 16 L 14 20 L 16 20 L 16 16 L 20 16 L 20 14 L 16 14 L 16 10 L 14 10 z "
     id="rect829" />
</svg>

<svg xmlns="http://www.w3.org/2000/svg" viewBox="0 0 32 32"><path d="M7.324 7.324a11 11 0 000 15.557 11 11 0 0015.185.335l4.968 4.968.707-.707-4.962-4.962a11 11 0 00-.341-15.19 11 11 0 00-15.557 0z" opacity=".6" stroke="#000" stroke-width="2" stroke-linejoin="round"/><path d="M7.324 7.324a11 11 0 000 15.557 11 11 0 0015.185.335l4.968 4.968.707-.707-4.962-4.962a11 11 0 00-.341-15.19 11 11 0 00-15.557 0z" fill="#c8c4b7"/><circle cy="21.358" r="10" transform="rotate(-45)" fill="#fffffe"/><path d="M14 10v4h-4v2h4v4h2v-4h4v-2h-4v-4h-2z" fill="#46a926"/></svg>
